X:15
T:Ta Lin, Ta Lon
R:Chant de moisson
M:2/4
L:1/8
N:Lent
N:La Bourre 4th edition 1929, page 32
Z:Steve Mansfield www.lesession.co.uk April 2012
K:Gm
F | B2 c2 | d3 d | d d d c | e2 !fermata! d2- |
d3 c | c2 d2 | !fermata!B3 d | d c B c | B-A G2-|!fermata!G4 |]

